images/collaboration_machine.svg

<svg height="843" viewBox="0 0 730 843" width="730" xmlns="http://www.w3.org/2000/svg" xmlns:xlink="http://www.w3.org/1999/xlink"><mask id="a" fill="#fff"><path d="m.967 598.566 344.648 199.291 345.307-199.291v-398.582l-345.307-199.291-344.648 199.291z" fill="#fff" fill-rule="evenodd"/></mask><mask id="b" fill="#fff"><path d="m.967 598.566 344.648 199.291 345.307-199.291v-398.582l-345.307-199.291-344.648 199.291z" fill="#fff" fill-rule="evenodd"/></mask><g fill="none" fill-rule="evenodd"><path d="m.236 631.748 364.379 210.471 365.039-210.471v-420.946l-365.039-210.471-364.379 210.471z" fill="#1f87ba" fill-rule="nonzero"/><g fill="#000" fill-rule="nonzero" mask="url(#a)" opacity=".13" transform="translate(19 22)"><path d="m.206 765.284c17.758 0 375.562-80.9 670.223-147.988 7.235-1.974-11.181 359.118-3.946 357.146 201.264-46.042 394.635-446.598 394.635-446.598l56.565-527.496s-1005.663 149.962-1033.288 220.338c-27.624 70.377-84.189 544.598-84.189 544.598z" transform="translate(-213 -195)"/></g><g mask="url(#b)" transform="translate(19 22)"><g fill-rule="nonzero" transform="translate(-199 -139)"><g fill="none" transform="translate(23 1)"><path d="m694.598 778.003 1.973-15.128c2.631-16.442 9.209-32.229 19.074-46.041l9.208-12.496 12.497-9.208c13.813-9.866 29.598-16.443 46.041-19.074l15.128-1.974 15.127 1.974c16.443 2.631 32.887 9.208 46.041 19.074l12.497 9.208 9.208 12.496c9.866 13.813 16.443 29.599 19.074 46.041l1.974 15.128-1.974 15.128c-2.631 16.443-9.208 32.229-19.074 46.041l-9.208 12.496-12.497 9.209c-13.812 9.865-29.598 16.442-46.041 19.073l-15.127 1.974-15.128-1.974c-16.443-2.631-32.229-9.208-46.041-19.073l-12.497-9.209-9.208-12.496c-9.865-13.813-16.443-29.598-19.074-46.041zm-232.178-32.229v63.8l82.874 5.919c6.577 42.752 23.021 82.216 48.014 115.76l-54.591 62.484 1.315 45.383h44.068l62.483-54.591c33.545 24.993 73.008 41.437 115.76 48.014l-38.147 82.874h107.867l5.919-82.874c42.753-6.577 82.216-23.021 115.76-48.014l19.074 54.591h44.068l45.383-45.383-54.592-62.484c24.994-33.544 41.438-73.008 48.015-115.76l82.873-5.919v-63.8l-82.873-5.92c-6.577-42.752-23.021-82.216-48.015-115.759l54.592-62.484-45.383-45.383h-44.068l-19.074 54.591c-33.544-24.993-73.007-41.437-115.76-48.014l-5.919-82.874h-44.067l-25.652 82.874c-42.752 6.577-82.215 23.021-115.76 48.014l-62.484-54.591h-44.067l-1.315 45.383 54.591 62.484c-24.993 33.543-41.437 73.007-48.014 115.759z" fill="#115d82"/><path d="m249.317 363.635-3.288-15.128c-3.946-16.443-3.946-33.544.657-49.987l3.946-15.128 7.893-13.154c8.551-14.47 21.048-26.309 35.518-34.859l13.154-7.893 15.128-3.289c16.443-3.946 33.544-3.946 49.987.658l15.128 3.946 13.154 7.893c14.47 8.551 26.31 21.047 34.859 35.518l7.893 13.154 3.289 15.785c3.946 16.443 3.946 33.544-.658 49.987l-3.946 15.128-7.893 13.154c-8.55 14.47-21.047 26.31-35.518 34.859l-13.154 7.893-15.785 3.289c-16.443 3.946-33.544 3.946-49.987-.658l-15.128-3.946-13.154-7.893c-14.47-8.55-26.31-21.047-34.859-35.517zm-228.231 56.565-20.39 59.195h44.067l78.927-25.651c21.705 37.49 51.961 68.403 87.478 90.108l-27.624 78.27 15.128 24.993h44.067l38.148-73.665c40.121 10.523 82.873 11.839 124.968 1.974l-7.893 74.98h44.067l59.195-23.678-25.651-78.928c37.491-21.705 67.746-51.96 89.451-87.478l34.202 27.625h44.067l24.993-58.538-73.665-38.148c10.523-40.121 11.839-82.873 1.974-124.968l74.98-36.175-23.675-59.194h-44.068l-34.859 25.651c-21.705-37.49-51.96-67.746-87.478-89.451l27.625-78.27-58.538-24.993h-44.067l5.919 73.665c-40.121-10.523-82.873-11.839-124.968-1.973l-36.176-74.981h-44.068l-15.127 23.679 25.651 78.927c-37.491 21.705-67.746 51.96-89.451 87.477l-78.27-27.624h-44.067l18.416 58.537 73.665 37.491c-10.523 40.121-11.839 82.873-1.972 124.968z" fill="#ff7f00"/></g><path d="m810.337 441.59h-63.8l-5.919 82.873c-42.752 6.577-82.216 23.021-115.76 48.015l-62.484-54.592-45.383 45.383 54.591 62.484c-24.993 33.544-41.437 73.008-48.014 115.76l-82.874 5.92v63.799l82.874 5.92c6.577 42.752 23.021 82.216 48.014 115.76l-54.591 62.483 45.383 45.384 62.484-54.592c33.544 24.994 73.008 41.437 115.76 48.015l5.919 82.873h63.8l5.92-82.873c42.752-6.578 82.216-23.021 115.76-48.015l62.483 54.592 45.384-45.384-54.592-62.483c24.994-33.544 41.437-73.008 48.014-115.76l82.874-5.92v-63.799l-82.874-5.92c-6.577-42.752-23.02-82.216-48.014-115.76l54.592-62.484-45.384-45.384-62.483 54.592c-33.545-24.994-73.008-41.438-115.76-48.015zm-16.443 235.465c16.443 2.631 32.887 9.208 46.041 19.074l12.497 9.208 9.208 12.496c9.866 13.813 16.443 29.599 19.074 46.041l1.973 15.128-1.973 15.128c-2.631 16.443-9.208 32.229-19.074 46.041l-9.208 12.496-12.497 9.209c-13.813 9.865-29.598 16.442-46.041 19.073l-15.128 1.974-15.127-1.974c-16.443-2.631-32.229-9.208-46.041-19.073l-12.497-9.209-9.208-12.496c-9.866-13.813-16.443-29.598-19.074-46.041l-1.974-15.128 1.974-15.128c2.631-16.442 9.208-32.229 19.074-46.041l9.208-12.496 12.497-9.208c13.813-9.866 29.598-16.443 46.041-19.074l15.127-1.974z" fill="#e3fbff"/><path d="m266.398 75.893-36.176-74.98-59.195 23.678 25.651 78.928c-37.49 21.705-67.745 51.96-89.45 87.478l-78.27-27.625-24.994 58.538 73.666 38.148c-10.523 40.121-11.84 82.873-1.974 124.968l-74.98 36.175 23.678 59.195 78.928-25.651c21.705 37.49 51.96 68.403 87.478 90.108l-27.625 78.27 58.538 24.993 38.147-73.665c40.122 10.523 82.874 11.839 124.969 1.974l36.175 74.98 59.195-23.678-25.651-78.928c37.49-21.705 67.746-51.96 89.451-87.478l78.27 27.625 24.993-58.538-73.665-38.148c10.523-40.121 11.839-82.873 1.973-124.968l74.981-36.175-23.679-59.195-78.927 25.651c-21.705-37.49-51.961-67.746-87.478-89.451l27.624-78.27-58.537-24.993-38.148 73.665c-40.122-11.839-82.875-12.496-124.968-2.631zm85.504 150.619 15.128 3.947 13.154 7.893c14.471 8.55 26.31 21.047 34.859 35.517l7.894 13.155 3.288 15.127c3.946 16.443 3.946 33.544-.657 49.987l-4.604 15.128-7.893 13.154c-8.551 14.47-21.048 26.31-35.518 34.859l-13.154 7.893-15.128 3.289c-16.443 3.946-33.544 3.946-49.987-.658l-15.128-3.946-13.154-7.893c-14.47-8.55-26.309-21.047-34.859-35.517l-7.893-13.155-3.289-15.127c-3.946-16.443-3.946-33.544.658-49.987l3.946-15.128 7.893-13.154c8.551-14.47 21.047-26.31 35.518-34.859l13.154-7.894 15.128-3.288c17.1-3.946 34.2-3.946 50.644.657z" fill="#fff"/><path d="m13.83 426.462 66.431-31.571 7.234-3.288-1.973-7.893c-4.604-18.417-6.577-37.49-6.577-56.564 0-21.048 2.631-42.752 8.55-63.142l1.974-7.894-7.235-3.946-65.114-33.544 17.758-41.437 69.062 24.336 7.893 2.631 4.604-7.235c21.047-34.859 51.303-63.799 86.162-83.531l7.235-3.946-2.631-7.893-22.364-69.719 41.437-16.443 31.571 66.431 3.288 7.235 7.894-1.974c39.463-9.208 80.9-8.551 120.363 1.315l7.894 1.974 3.946-7.235 33.544-65.115 41.437 17.759-24.336 69.062-2.631 7.893 7.235 4.604c34.859 21.047 63.799 51.302 83.531 86.162l3.946 7.234 7.893-2.631 69.719-22.362 16.443 41.437-66.431 31.57-7.234 3.289 1.973 7.893c4.604 18.417 6.577 37.49 6.577 56.564 0 21.048-2.631 42.752-8.55 63.142l-2.631 7.235 7.234 3.946 65.115 33.544-17.759 41.437-69.062-24.335-7.893-2.632-3.946 6.577c-21.047 34.86-51.303 63.8-86.162 83.531l-7.235 3.947 2.631 8.55 22.363 69.719-41.437 16.443-31.571-66.43-3.288-7.235-7.894 1.973c-39.464 9.209-80.9 8.551-120.363-1.315l-7.894-1.973-3.946 7.235-33.544 65.114-41.437-17.759 24.336-69.061 2.631-7.893-7.235-4.604c-34.859-21.047-63.799-51.303-83.531-86.162l-3.946-7.235-7.893 2.631-69.719 22.363zm-13.154-5.262 23.678 59.195 78.928-25.651c21.705 37.49 51.96 68.403 87.478 90.108l-27.625 78.27 58.538 24.993 38.147-73.665c40.122 10.523 82.874 11.839 124.969 1.974l36.175 74.98 59.195-23.678-25.651-78.928c37.49-21.705 67.746-51.96 89.451-87.478l78.27 27.625 24.993-58.538-73.665-38.148c5.919-21.047 8.55-43.409 8.55-65.772 0-19.731-1.973-39.464-7.234-59.195l74.98-36.175-23.678-59.195-78.928 25.651c-21.705-37.49-51.96-67.746-87.478-89.451l27.625-78.27-58.538-24.993-38.147 73.665c-40.122-10.523-82.874-11.839-124.969-1.973l-36.175-74.981-59.196 23.679 25.651 78.927c-37.49 21.705-67.746 51.961-89.451 87.478l-78.27-27.624-24.993 58.537 73.665 38.148c-5.919 21.048-8.55 43.41-8.55 65.772 0 19.732 1.973 39.464 7.234 59.195z" fill="#ffb000"/><path d="m451.219 756.64 73.007-5.262 7.894-.658 1.315-7.893c5.919-40.121 21.704-78.27 46.04-111.155l4.604-6.577-5.262-5.92-48.014-55.249 31.57-31.571 55.249 48.015 5.92 5.262 6.577-4.604c32.229-24.336 71.034-40.121 111.155-46.041l7.893-1.315.658-7.893 5.262-73.008h44.726l5.919 72.351.658 7.893 7.893 1.315c40.121 5.92 78.27 21.705 111.155 46.041l6.578 4.604 5.919-5.262 55.249-48.014 31.571 31.57-48.015 55.249-5.262 5.92 4.604 6.577c24.336 32.229 40.121 71.034 46.041 111.155l1.315 7.894 7.893.657 73.008 5.262v45.383l-73.008 5.263-7.893.657-1.315 7.893c-5.92 40.121-21.705 78.27-46.041 111.156l-4.604 6.577 5.262 5.919 48.015 55.249-31.571 31.571-55.249-48.014-5.919-5.263-6.578 4.604c-32.886 24.336-71.034 40.121-111.155 46.041l-7.893 1.315-.658 7.893-5.262 73.008h-44.726l-5.262-73.008-.657-7.893-7.893-1.315c-40.122-5.92-78.27-21.705-111.156-46.041l-6.577-4.604-5.92 5.263-55.249 48.014-31.57-31.571 48.014-55.249 5.262-5.919-4.604-6.577c-24.336-32.887-40.121-71.035-46.041-111.156l-1.315-7.893-7.893-.657-73.665-5.263v-44.726zm-9.866-9.866v63.8l82.873 5.919c6.578 42.752 23.021 82.216 48.015 115.76l-54.592 62.484 45.384 45.383 62.483-54.591c33.544 24.993 73.008 41.437 115.76 48.014l5.92 82.874h63.8l5.919-82.874c42.752-6.577 82.216-23.021 115.76-48.014l62.484 54.591 45.383-45.383-54.591-62.484c24.993-33.544 41.437-73.008 48.014-115.76l82.873-5.919v-63.8l-82.873-5.92c-6.577-42.752-23.021-82.216-48.014-115.759l54.591-62.484-45.383-45.383-62.484 54.591c-33.544-24.993-73.008-41.437-115.76-48.014l-5.919-82.874h-63.8l-5.92 82.874c-42.752 6.577-82.216 23.021-115.76 48.014l-62.483-54.591-45.384 45.383 54.592 62.484c-24.994 33.543-41.437 73.007-48.015 115.759z" fill="#0f6e93"/></g></g><g fill-rule="nonzero"><path d="m62.062 246.32 303.212-174.955 303.212 174.955v349.91l-303.212 174.955-303.212-174.955zm-61.826-35.518v420.945l365.038 210.472 364.38-210.472v-420.945l-364.38-210.472z" fill="#115d82"/><path d="m15.847 183.528 287.427-165.747 286.769 165.747v331.494l-286.769 165.747-287.427-165.747zm-15.128-9.208v349.91l302.555 174.955 302.553-174.955v-349.253l-302.553-174.955z" fill="#000" opacity=".13" transform="translate(62 72)"/></g></g></svg>

<svg width="730px" height="843px" viewBox="0 0 730 843" version="1.1" xmlns="http://www.w3.org/2000/svg" xmlns:xlink="http://www.w3.org/1999/xlink">
    <!-- Generator: Sketch 51.2 (57519) - http://www.bohemiancoding.com/sketch -->
    <desc>Created with Sketch.</desc>
    <defs>
        <polygon id="path-1" points="0.967 598.566 345.615 797.857 690.922 598.566 690.922 199.984 345.615 0.693 0.967 199.984"></polygon>
        <polygon id="path-3" points="0.967 598.566 345.615 797.857 690.922 598.566 690.922 199.984 345.615 0.693 0.967 199.984"></polygon>
    </defs>
    <g id="Page-1" stroke="none" stroke-width="1" fill="none" fill-rule="evenodd">
        <g id="collaboration_machine">
            <g id="Group">
                <polygon id="Shape" fill="#1F87BA" fill-rule="nonzero" points="0.236 631.748 364.615 842.219 729.654 631.748 729.654 210.802 364.615 0.331 0.236 210.802"></polygon>
                <g transform="translate(19.000000, 22.000000)" id="Clipped">
                    <g>
                        <mask id="mask-2" fill="white">
                            <use xlink:href="#path-1"></use>
                        </mask>
                        <g id="SVGID_1_"></g>
                        <g id="Group" opacity="0.13" mask="url(#mask-2)" fill="#000000" fill-rule="nonzero">
                            <g transform="translate(-213.000000, -195.000000)" id="Shape">
                                <path d="M0.206,765.284 C17.964,765.284 375.768,684.384 670.429,617.296 C677.664,615.322 659.248,976.414 666.483,974.442 C867.747,928.4 1061.118,527.844 1061.118,527.844 L1117.683,0.348 C1117.683,0.348 112.02,150.31 84.395,220.686 C56.771,291.063 0.206,765.284 0.206,765.284 Z"></path>
                            </g>
                        </g>
                    </g>
                    <g>
                        <mask id="mask-4" fill="white">
                            <use xlink:href="#path-3"></use>
                        </mask>
                        <g id="SVGID_3_"></g>
                        <g id="Group" mask="url(#mask-4)">
                            <g transform="translate(-199.000000, -139.000000)">
                                <g id="Group" stroke-width="1" fill="none" fill-rule="evenodd" transform="translate(23.000000, 1.000000)">
                                    <path d="M694.598,778.003 L696.571,762.875 C699.202,746.433 705.78,730.646 715.645,716.834 L724.853,704.338 L737.35,695.13 C751.163,685.264 766.948,678.687 783.391,676.056 L798.519,674.082 L813.646,676.056 C830.089,678.687 846.533,685.264 859.687,695.13 L872.184,704.338 L881.392,716.834 C891.258,730.647 897.835,746.433 900.466,762.875 L902.44,778.003 L900.466,793.131 C897.835,809.574 891.258,825.36 881.392,839.172 L872.184,851.668 L859.687,860.877 C845.875,870.742 830.089,877.319 813.646,879.95 L798.519,881.924 L783.391,879.95 C766.948,877.319 751.162,870.742 737.35,860.877 L724.853,851.668 L715.645,839.172 C705.78,825.359 699.202,809.574 696.571,793.131 L694.598,778.003 Z M462.42,745.774 L462.42,809.574 L545.294,815.493 C551.871,858.245 568.315,897.709 593.308,931.253 L538.717,993.737 L540.032,1039.12 L584.1,1039.12 L646.583,984.529 C680.128,1009.522 719.591,1025.966 762.343,1032.543 L724.196,1115.417 L832.063,1115.417 L837.982,1032.543 C880.735,1025.966 920.198,1009.522 953.742,984.529 L972.816,1039.12 L1016.884,1039.12 L1062.267,993.737 L1007.675,931.253 C1032.669,897.709 1049.113,858.245 1055.69,815.493 L1138.563,809.574 L1138.563,745.774 L1055.69,739.854 C1049.113,697.102 1032.669,657.638 1007.675,624.095 L1062.267,561.611 L1016.884,516.228 L972.816,516.228 L953.742,570.819 C920.198,545.826 880.735,529.382 837.982,522.805 L832.063,439.931 L787.996,439.931 L762.344,522.805 C719.592,529.382 680.129,545.826 646.584,570.819 L584.1,516.228 L540.033,516.228 L538.718,561.611 L593.309,624.095 C568.316,657.638 551.872,697.102 545.295,739.854 L462.42,745.774 Z" id="Shape" fill="#115D82" fill-rule="nonzero"></path>
                                    <path d="M249.317,363.635 L246.029,348.507 C242.083,332.064 242.083,314.963 246.686,298.52 L250.632,283.392 L258.525,270.238 C267.076,255.768 279.573,243.929 294.043,235.379 L307.197,227.486 L322.325,224.197 C338.768,220.251 355.869,220.251 372.312,224.855 L387.44,228.801 L400.594,236.694 C415.064,245.245 426.904,257.741 435.453,272.212 L443.346,285.366 L446.635,301.151 C450.581,317.594 450.581,334.695 445.977,351.138 L442.031,366.266 L434.138,379.42 C425.588,393.89 413.091,405.73 398.62,414.279 L385.466,422.172 L369.681,425.461 C353.238,429.407 336.137,429.407 319.694,424.803 L304.566,420.857 L291.412,412.964 C276.942,404.414 265.102,391.917 256.553,377.447 L249.317,363.635 Z M21.086,420.2 L0.696,479.395 L44.763,479.395 L123.69,453.744 C145.395,491.234 175.651,522.147 211.168,543.852 L183.544,622.122 L198.672,647.115 L242.739,647.115 L280.887,573.45 C321.008,583.973 363.76,585.289 405.855,575.424 L397.962,650.404 L442.029,650.404 L501.224,626.726 L475.573,547.798 C513.064,526.093 543.319,495.838 565.024,460.32 L599.226,487.945 L643.293,487.945 L668.286,429.407 L594.621,391.259 C605.144,351.138 606.46,308.386 596.595,266.291 L671.575,230.116 L647.9,170.922 L603.832,170.922 L568.973,196.573 C547.268,159.083 517.013,128.827 481.495,107.122 L509.12,28.852 L450.582,3.859 L406.515,3.859 L412.434,77.524 C372.313,67.001 329.561,65.685 287.466,75.551 L251.29,0.57 L207.222,0.57 L192.095,24.249 L217.746,103.176 C180.255,124.881 150,155.136 128.295,190.653 L50.025,163.029 L5.958,163.029 L24.374,221.566 L98.039,259.057 C87.516,299.178 86.2,341.93 96.067,384.025 L21.086,420.2 Z" id="Shape" fill="#FF7F00" fill-rule="nonzero"></path>
                                </g>
                                <path d="M810.337,441.59 L746.537,441.59 L740.618,524.463 C697.866,531.04 658.402,547.484 624.858,572.478 L562.374,517.886 L516.991,563.269 L571.582,625.753 C546.589,659.297 530.145,698.761 523.568,741.513 L440.694,747.433 L440.694,811.232 L523.568,817.152 C530.145,859.904 546.589,899.368 571.582,932.912 L516.991,995.395 L562.374,1040.779 L624.858,986.187 C658.402,1011.181 697.866,1027.624 740.618,1034.202 L746.537,1117.075 L810.337,1117.075 L816.257,1034.202 C859.009,1027.624 898.473,1011.181 932.017,986.187 L994.5,1040.779 L1039.884,995.395 L985.292,932.912 C1010.286,899.368 1026.729,859.904 1033.306,817.152 L1116.18,811.232 L1116.18,747.433 L1033.306,741.513 C1026.729,698.761 1010.286,659.297 985.292,625.753 L1039.884,563.269 L994.5,517.885 L932.017,572.477 C898.472,547.483 859.009,531.039 816.257,524.462 L810.337,441.59 Z M793.894,677.055 C810.337,679.686 826.781,686.263 839.935,696.129 L852.432,705.337 L861.64,717.833 C871.506,731.646 878.083,747.432 880.714,763.874 L882.687,779.002 L880.714,794.13 C878.083,810.573 871.506,826.359 861.64,840.171 L852.432,852.667 L839.935,861.876 C826.122,871.741 810.337,878.318 793.894,880.949 L778.766,882.923 L763.639,880.949 C747.196,878.318 731.41,871.741 717.598,861.876 L705.101,852.667 L695.893,840.171 C686.027,826.358 679.45,810.573 676.819,794.13 L674.845,779.002 L676.819,763.874 C679.45,747.432 686.027,731.645 695.893,717.833 L705.101,705.337 L717.598,696.129 C731.411,686.263 747.196,679.686 763.639,677.055 L778.766,675.081 L793.894,677.055 Z" id="Shape" fill="#E3FBFF" fill-rule="nonzero"></path>
                                <path d="M266.398,75.893 L230.222,0.913 L171.027,24.591 L196.678,103.519 C159.188,125.224 128.933,155.479 107.228,190.997 L28.958,163.372 L3.964,221.91 L77.63,260.058 C67.107,300.179 65.79,342.931 75.656,385.026 L0.676,421.201 L24.354,480.396 L103.282,454.745 C124.987,492.235 155.242,523.148 190.76,544.853 L163.135,623.123 L221.673,648.116 L259.82,574.451 C299.942,584.974 342.694,586.29 384.789,576.425 L420.964,651.405 L480.159,627.727 L454.508,548.799 C491.998,527.094 522.254,496.839 543.959,461.321 L622.229,488.946 L647.222,430.408 L573.557,392.26 C584.08,352.139 585.396,309.387 575.53,267.292 L650.511,231.117 L626.832,171.922 L547.905,197.573 C526.2,160.083 495.944,129.827 460.427,108.122 L488.051,29.852 L429.514,4.859 L391.366,78.524 C351.244,66.685 308.491,66.028 266.398,75.893 Z M351.902,226.512 L367.03,230.459 L380.184,238.352 C394.655,246.902 406.494,259.399 415.043,273.869 L422.937,287.024 L426.225,302.151 C430.171,318.594 430.171,335.695 425.568,352.138 L420.964,367.266 L413.071,380.42 C404.52,394.89 392.023,406.73 377.553,415.279 L364.399,423.172 L349.271,426.461 C332.828,430.407 315.727,430.407 299.284,425.803 L284.156,421.857 L271.002,413.964 C256.532,405.414 244.693,392.917 236.143,378.447 L228.25,365.292 L224.961,350.165 C221.015,333.722 221.015,316.621 225.619,300.178 L229.565,285.05 L237.458,271.896 C246.009,257.426 258.505,245.586 272.976,237.037 L286.13,229.143 L301.258,225.855 C318.358,221.909 335.458,221.909 351.902,226.512 Z" id="Shape" fill="#FFFFFF" fill-rule="nonzero"></path>
                                <path d="M13.83,426.462 L80.261,394.891 L87.495,391.603 L85.522,383.71 C80.918,365.293 78.945,346.22 78.945,327.146 C78.945,306.098 81.576,284.394 87.495,264.004 L89.469,256.11 L82.234,252.164 L17.12,218.62 L34.878,177.183 L103.94,201.519 L111.833,204.15 L116.437,196.915 C137.484,162.056 167.74,133.116 202.599,113.384 L209.834,109.438 L207.203,101.545 L184.839,31.826 L226.276,15.383 L257.847,81.814 L261.135,89.049 L269.029,87.075 C308.492,77.867 349.929,78.524 389.392,88.39 L397.286,90.364 L401.232,83.129 L434.776,18.014 L476.213,35.773 L451.877,104.835 L449.246,112.728 L456.481,117.332 C491.34,138.379 520.28,168.634 540.012,203.494 L543.958,210.728 L551.851,208.097 L621.57,185.735 L638.013,227.172 L571.582,258.742 L564.348,262.031 L566.321,269.924 C570.925,288.341 572.898,307.414 572.898,326.488 C572.898,347.536 570.267,369.24 564.348,389.63 L561.717,396.865 L568.951,400.811 L634.066,434.355 L616.307,475.792 L547.245,451.457 L539.352,448.825 L535.406,455.402 C514.359,490.262 484.103,519.202 449.244,538.933 L442.009,542.88 L444.64,551.43 L467.003,621.149 L425.566,637.592 L393.995,571.162 L390.707,563.927 L382.813,565.9 C343.349,575.109 301.913,574.451 262.45,564.585 L254.556,562.612 L250.61,569.847 L217.066,634.961 L175.629,617.202 L199.965,548.141 L202.596,540.248 L195.361,535.644 C160.502,514.597 131.562,484.341 111.83,449.482 L107.884,442.247 L99.991,444.878 L30.272,467.241 L13.83,426.462 Z M0.676,421.2 L24.354,480.395 L103.282,454.744 C124.987,492.234 155.242,523.147 190.76,544.852 L163.135,623.122 L221.673,648.115 L259.82,574.45 C299.942,584.973 342.694,586.289 384.789,576.424 L420.964,651.404 L480.159,627.726 L454.508,548.798 C491.998,527.093 522.254,496.838 543.959,461.32 L622.229,488.945 L647.222,430.407 L573.557,392.259 C579.476,371.212 582.107,348.85 582.107,326.487 C582.107,306.756 580.134,287.023 574.873,267.292 L649.853,231.117 L626.175,171.922 L547.247,197.573 C525.542,160.083 495.287,129.827 459.769,108.122 L487.394,29.852 L428.856,4.859 L390.709,78.524 C350.587,68.001 307.835,66.685 265.74,76.551 L229.565,1.57 L170.369,25.249 L196.02,104.176 C158.53,125.881 128.274,156.137 106.569,191.654 L28.299,164.03 L3.306,222.567 L76.971,260.715 C71.052,281.763 68.421,304.125 68.421,326.487 C68.421,346.219 70.394,365.951 75.655,385.682 L0.676,421.2 Z" id="Shape" fill="#FFB000" fill-rule="nonzero"></path>
                                <path d="M451.219,756.64 L524.226,751.378 L532.12,750.72 L533.435,742.827 C539.354,702.706 555.139,664.557 579.475,631.672 L584.079,625.095 L578.817,619.175 L530.803,563.926 L562.373,532.355 L617.622,580.37 L623.542,585.632 L630.119,581.028 C662.348,556.692 701.153,540.907 741.274,534.987 L749.167,533.672 L749.825,525.779 L755.087,452.771 L799.813,452.771 L805.732,525.122 L806.39,533.015 L814.283,534.33 C854.404,540.25 892.553,556.035 925.438,580.371 L932.016,584.975 L937.935,579.713 L993.184,531.699 L1024.755,563.269 L976.74,618.518 L971.478,624.438 L976.082,631.015 C1000.418,663.244 1016.203,702.049 1022.123,742.17 L1023.438,750.064 L1031.331,750.721 L1104.339,755.983 L1104.339,801.366 L1031.331,806.629 L1023.438,807.286 L1022.123,815.179 C1016.203,855.3 1000.418,893.449 976.082,926.335 L971.478,932.912 L976.74,938.831 L1024.755,994.08 L993.184,1025.651 L937.935,977.637 L932.016,972.374 L925.438,976.978 C892.552,1001.314 854.404,1017.099 814.283,1023.019 L806.39,1024.334 L805.732,1032.227 L800.47,1105.235 L755.744,1105.235 L750.482,1032.227 L749.825,1024.334 L741.932,1023.019 C701.81,1017.099 663.662,1001.314 630.776,976.978 L624.199,972.374 L618.279,977.637 L563.03,1025.651 L531.46,994.08 L579.474,938.831 L584.736,932.912 L580.132,926.335 C555.796,893.448 540.011,855.3 534.091,815.179 L532.776,807.286 L524.883,806.629 L451.218,801.366 L451.218,756.64 L451.219,756.64 Z M441.353,746.774 L441.353,810.574 L524.226,816.493 C530.804,859.245 547.247,898.709 572.241,932.253 L517.649,994.737 L563.033,1040.12 L625.516,985.529 C659.06,1010.522 698.524,1026.966 741.276,1033.543 L747.196,1116.417 L810.996,1116.417 L816.915,1033.543 C859.667,1026.966 899.131,1010.522 932.675,985.529 L995.159,1040.12 L1040.542,994.737 L985.951,932.253 C1010.944,898.709 1027.388,859.245 1033.965,816.493 L1116.838,810.574 L1116.838,746.774 L1033.965,740.854 C1027.388,698.102 1010.944,658.638 985.951,625.095 L1040.542,562.611 L995.159,517.228 L932.675,571.819 C899.131,546.826 859.667,530.382 816.915,523.805 L810.996,440.931 L747.196,440.931 L741.276,523.805 C698.524,530.382 659.06,546.826 625.516,571.819 L563.033,517.228 L517.649,562.611 L572.241,625.095 C547.247,658.638 530.804,698.102 524.226,740.854 L441.353,746.774 Z" id="Shape" fill="#0F6E93" fill-rule="nonzero"></path>
                            </g>
                        </g>
                    </g>
                </g>
            </g>
            <g id="Group" fill-rule="nonzero">
                <path d="M62.062,246.32 L365.274,71.365 L668.486,246.32 L668.486,596.23 L365.274,771.185 L62.062,596.23 L62.062,246.32 Z M0.236,210.802 L0.236,631.747 L365.274,842.219 L729.654,631.747 L729.654,210.802 L365.274,0.33 L0.236,210.802 Z" id="Shape" fill="#115D82"></path>
                <g opacity="0.13" transform="translate(62.000000, 72.000000)" fill="#000000" id="Shape">
                    <path d="M15.847,183.528 L303.274,17.781 L590.043,183.528 L590.043,515.022 L303.274,680.769 L15.847,515.022 L15.847,183.528 Z M0.719,174.32 L0.719,524.23 L303.274,699.185 L605.827,524.23 L605.827,174.977 L303.274,0.022 L0.719,174.32 Z"></path>
                </g>
            </g>
        </g>
    </g>
</svg>
